packages/web-icons/svgs/user_1.svg

<svg viewBox="0 0 51 48" xmlns="http://www.w3.org/2000/svg" class="ridi_icon"><path d="M39.4 35.9c-6.6-2.4-8.7-4.4-8.7-8.7 0-2.6 2-1.8 2.9-6.5.4-2 2.1 0 2.5-4.5 0-1.8-1-2.2-1-2.2s.5-2.7.7-4.7C36 6.6 34.3 0 25.2 0S14.4 6.6 14.6 9.1c.2 2 .7 4.7.7 4.7s-1 .4-1 2.2c.3 4.5 2.1 2.6 2.5 4.5.9 4.8 2.9 3.9 2.9 6.5 0 4.3-2.1 6.4-8.7 8.7C4.4 38.1.1 40.6.1 42.2v5.6h50.1v-5.6c0-1.7-4.2-3.9-10.8-6.3z"/></svg>

<?xml version="1.0" encoding="UTF-8"?>
<svg width="51px" height="48px" viewBox="0 0 51 48" version="1.1" xmlns="http://www.w3.org/2000/svg">
  <!-- Generator: Sketch 41.2 (35397) - http://www.bohemiancoding.com/sketch -->
  <title>user_1</title>
  <desc>Created with Sketch.</desc>
  <defs></defs>
  <g id="Page-1" stroke="none" stroke-width="1" fill="none" fill-rule="evenodd">
    <g id="user_1" fill="#000000">
      <g id="레이어_1">
        <path d="M39.4,35.9 C32.8,33.5 30.7,31.5 30.7,27.2 C30.7,24.6 32.7,25.4 33.6,20.7 C34,18.7 35.7,20.7 36.1,16.2 C36.1,14.4 35.1,14 35.1,14 C35.1,14 35.6,11.3 35.8,9.3 C36,6.6 34.3,0 25.2,0 C16.1,0 14.4,6.6 14.6,9.1 C14.8,11.1 15.3,13.8 15.3,13.8 C15.3,13.8 14.3,14.2 14.3,16 C14.6,20.5 16.4,18.6 16.8,20.5 C17.7,25.3 19.7,24.4 19.7,27 C19.7,31.3 17.6,33.4 11,35.7 C4.4,38.1 0.1,40.6 0.1,42.2 L0.1,47.8 L50.2,47.8 L50.2,42.2 C50.2,40.5 46,38.3 39.4,35.9 L39.4,35.9 Z" id="Shape"></path>
      </g>
    </g>
  </g>
</svg>
